source/img/icon-tel-white.svg

<svg width="20" height="20" viewBox="0 0 20 20" fill="none" xmlns="http://www.w3.org/2000/svg">
<path d="M19.5516 15.819L16.4629 12.723C15.8477 12.1089 14.8289 12.1275 14.1923 12.7659L12.6362 14.3251C12.5379 14.2708 12.4361 14.2141 12.3291 14.1539C11.3465 13.6082 10.0016 12.8602 8.58629 11.4407C7.16683 10.0182 6.41987 8.66818 5.87373 7.68266C5.8161 7.57825 5.76088 7.47759 5.70635 7.38199L6.75072 6.33681L7.26417 5.82156C7.90179 5.18233 7.91937 4.16151 7.3056 3.54559L4.21691 0.449216C3.60313 -0.165832 2.58388 -0.147173 1.94626 0.492062L1.07576 1.36954L1.09955 1.39321C0.807658 1.7665 0.563746 2.19704 0.382235 2.66132C0.214915 3.10325 0.110743 3.52498 0.0631095 3.94756C-0.344732 7.33632 1.20033 10.4334 5.39343 14.636C11.1896 20.4449 15.8605 20.0061 16.062 19.9847C16.5009 19.9321 16.9215 19.827 17.3489 19.6606C17.8081 19.4808 18.2374 19.2367 18.6096 18.9448L18.6286 18.9617L19.5105 18.0962C20.1468 17.4571 20.1651 16.4359 19.5516 15.819Z" fill="white"/>
</svg>

<svg width="20" height="20" fill="none" xmlns="http://www.w3.org/2000/svg"><path d="M19.552 15.819l-3.09-3.096c-.614-.614-1.633-.596-2.27.043l-1.556 1.56-.307-.172c-.982-.546-2.327-1.294-3.743-2.713-1.42-1.423-2.166-2.773-2.712-3.758-.058-.105-.113-.205-.168-.301l1.045-1.045.513-.515c.638-.64.655-1.66.042-2.276L4.216.449c-.613-.615-1.632-.596-2.27.043l-.87.878.024.023a5.048 5.048 0 00-.718 1.268 5.267 5.267 0 00-.319 1.287c-.408 3.388 1.137 6.485 5.33 10.688 5.797 5.809 10.468 5.37 10.669 5.349.439-.053.86-.158 1.287-.324.46-.18.888-.424 1.26-.716l.02.017.881-.866c.637-.639.655-1.66.042-2.277z" fill="#fff"/></svg>
